symbolic/22x22/actions/mail-invitation.svg

<svg xmlns="http://www.w3.org/2000/svg" width="22" height="22"><defs><style id="current-color-scheme" type="text/css"></style></defs><path style="fill:currentColor;color:#323a41" d="M2 2C0 2 0 4 0 4v8s0 2 2 2h12c2 0 2-2 2-2V4s0-2-2-2H2zm6 2a2 2 0 0 1 2 2 2 2 0 0 1-2 2 2 2 0 0 1-2-2 2 2 0 0 1 2-2zm0 5c4 0 4 2.5 4 2.5v.5H4v-.5S4 9 8 9z" transform="translate(3 3)"/></svg>

<svg xmlns="http://www.w3.org/2000/svg" width="22" height="22" version="1.1">
 <defs>
  <style id="current-color-scheme" type="text/css">
   .ColorScheme-Text { color:#323a41; } .ColorScheme-Highlight { color:#4285f4; } .ColorScheme-NeutralText { color:#ff9800; } .ColorScheme-PositiveText { color:#4caf50; } .ColorScheme-NegativeText { color:#f44336; }
  </style>
 </defs>
 <g transform="translate(3,3)">
  <path style="fill:currentColor" class="ColorScheme-Text" d="M 2 2 C 0 2 0 4 0 4 L 0 12 C 0 12 0 14 2 14 L 14 14 C 16 14 16 12 16 12 L 16 4 C 16 4 16 2 14 2 L 2 2 z M 8 4 A 2 2 0 0 1 10 6 A 2 2 0 0 1 8 8 A 2 2 0 0 1 6 6 A 2 2 0 0 1 8 4 z M 8 9 C 12 9 12 11.5 12 11.5 L 12 12 L 4 12 L 4 11.5 C 4 11.5 4 9 8 9 z"/>
 </g>
</svg>
